X:1
T: Wolverton Hall
N:
C:
S:
A:
O:
R:
M:6/4
K:D
I:speed 270
%W: A1
% voice 1 (1 lines, 22 notes)
K:D
M:6/4
L:1/16
d4 |d8 A4 F6 E2 D4 |G4 B8B6 A2 G4 |F6 G2 A4 F6 E2 D4 |E8 e4 c6 B2 A4 |
%W:
% voice 1 (1 lines, 17 notes)
d8 A4 F6 E2 D4 |G4 B8 F4 A8 |G6 F2 E4 F8 C4 |D12D8 d4 |
%W: A2
% voice 1 (1 lines, 21 notes)
d8 A4 F6 E2 D4 |G4 B8B6 A2 G4 |F6 G2 A4 F6 E2 D4 |E8 e4 c6 B2 A4 |
%W:
% voice 1 (1 lines, 18 notes)
d8 A4 F6 E2 D4 |G4 B8 F4 A8 |G6 F2 E4 F8 C4 |D12D8 d2 e2 |
%W: B1
% voice 1 (1 lines, 19 notes)
f6 g2 f4 e8 A4 |d12d4 A4 d4 |B4 G4 B4 A6 G2 F4 |E8 e4 e8 F4 |
%W:
% voice 1 (1 lines, 20 notes)
g6 f2 e4 f8 B4 |e6 f2 e2 d2 c6 B2 A4 |d8 e4 e8 d4 |d12d8 d2 e2 |
%W: B2
% voice 1 (1 lines, 19 notes)
f6 g2 f4 e8 A4 |d12 d4 A4 d4 |B4 G4 B4 A6 G2 F4 |E4 e8 e8 F4 |
%W:
% voice 1 (1 lines, 18 notes)
g6 f2 e4 f8 B4 |e6 f2 e2 d2 c6 B2 A4 |d8 e4 e8 d4 |d12d8 ||
